icons/24/comment.svg

<svg width="24" height="24" viewBox="0 0 24 24" xmlns="http://www.w3.org/2000/svg">
  <path fill-rule="evenodd" clip-rule="evenodd" d="M4.75 4.5C4.6837 4.5 4.62011 4.52634 4.57322 4.57322C4.52634 4.62011 4.5 4.6837 4.5 4.75V15.25C4.5 15.388 4.612 15.5 4.75 15.5H7.75C7.94891 15.5 8.13968 15.579 8.28033 15.7197C8.42098 15.8603 8.5 16.0511 8.5 16.25V19.44L12.22 15.72C12.3605 15.5793 12.5512 15.5002 12.75 15.5H19.25C19.3163 15.5 19.3799 15.4737 19.4268 15.4268C19.4737 15.3799 19.5 15.3163 19.5 15.25V4.75C19.5 4.6837 19.4737 4.62011 19.4268 4.57322C19.3799 4.52634 19.3163 4.5 19.25 4.5H4.75ZM3 4.75C3 3.784 3.784 3 4.75 3H19.25C20.216 3 21 3.784 21 4.75V15.25C21 15.7141 20.8156 16.1592 20.4874 16.4874C20.1592 16.8156 19.7141 17 19.25 17H13.06L9.487 20.573C9.28324 20.7767 9.02367 20.9153 8.74111 20.9715C8.45854 21.0277 8.16567 20.9988 7.8995 20.8886C7.63333 20.7784 7.40582 20.5917 7.24571 20.3522C7.08561 20.1127 7.0001 19.8311 7 19.543V17H4.75C4.28587 17 3.84075 16.8156 3.51256 16.4874C3.18437 16.1592 3 15.7141 3 15.25V4.75Z"/>
</svg>

<svg width="24" height="24" viewBox="0 0 24 24" xmlns="http://www.w3.org/2000/svg">
  <path fill-rule="evenodd" clip-rule="evenodd" d="M4.75 4.5a.25.25 0 00-.25.25v10.5c0 .138.112.25.25.25h3a.75.75 0 01.75.75v3.19l3.72-3.72a.75.75 0 01.53-.22h6.5a.25.25 0 00.25-.25V4.75a.25.25 0 00-.25-.25H4.75zM3 4.75C3 3.784 3.784 3 4.75 3h14.5c.966 0 1.75.784 1.75 1.75v10.5A1.75 1.75 0 0119.25 17h-6.19l-3.573 3.573A1.457 1.457 0 017 19.543V17H4.75A1.75 1.75 0 013 15.25V4.75z"/>
</svg>
